X:12
T:Dawning of the Day, The
R:air
C:Edward Walsh (1805-1850)
Z:id:hn-air-12
M:C|
L:1/8
Q:1/2=70
K:G
GA | B2B2 B2AB | d2d2 e2dB | G2A2 G3F | G6 Bd |
e3d e2g2 | B3A G2B2 | d2B2 g2B2 | A6 Bd |
e3d e2g2 | B3A G2B2 | d2B2 g2B2 | A6 GA |
B2B2 B2AB | d2d2 e2dB | G2A2 G3F | G6 ||

